X:194
T:Last House in Connaught
Z: id:dc-reel-177
M:C
L:1/8
K:D Mixolydian
e|fdd^c d=cAB|c2Bd cAGE|D2ED EGAB|c2Bd cAGe|!
fdd^c d=cAB|c2Bd cAGE|D2ED EGAB|cAGE FDD:|!
e|fdd^c defg|add2 bdad|eccB cdef|gcc2 acgc|!
fdd^c d=cAB|c2Bd cAGE|D2ED EGAB|cAGE FDD:|!

